icons/core/fullscreen.svg

<svg width="32" height="32" viewBox="0 0 32 32" fill="none" xmlns="http://www.w3.org/2000/svg">
<path fill-rule="evenodd" clip-rule="evenodd" d="M26 6L20 6V4L26 4C27.1046 4 28 4.89543 28 6V12H26V6ZM6 26L6 20H4L4 26C4 27.1046 4.89543 28 6 28H12V26H6ZM26 20L26 26L20 26V28L26 28C27.1046 28 28 27.1046 28 26L28 20H26ZM6 4C4.89543 4 4 4.89543 4 6V12H6V6H12V4H6Z" fill="black"/>
</svg>

<svg viewBox="0 0 32 32" xmlns="http://www.w3.org/2000/svg"><path fill-rule="evenodd" d="M26 6h-6V4h6a2 2 0 012 2v6h-2V6zM6 26v-6H4v6a2 2 0 002 2h6v-2H6zm20-6v6h-6v2h6a2 2 0 002-2v-6h-2zM6 4a2 2 0 00-2 2v6h2V6h6V4H6z"/></svg>
